X:1
T:Cest ung grand mal
T:Pierre Certon
T:Source : Livre XI de 28 chansons nouvelles à 4 parties---Paris---P.Attaingnant---1542. Editor : André Vierendeels (28/05/18) Notes : Original clefs : G2, C2, C3, F3 Original note values have been halved Editorial accidentals above the staff  
T:Cest ung grand mal
T:©
T:©
T:©
T:©
C:Pierre Certon
Z:©
%%score [ 1 2 3 4 ]
L:1/8
Q:1/4=120
M:2/2
K:C
V:1 treble nm="Soprano" snm="S"
V:2 treble nm="Alto" snm="A"
V:3 treble-8 nm="Tenor" snm="T"
V:4 bass nm="Bass" snm="B"
V:1
 G8 | z4 c4 | c2 c2 B2 B2 | G2 G2 A2 c2- | cB/A/ B2 c2 A2- | AG G4 F2 | G4 z4 | z2 c2 B2 A2 | %8
w: Cest,|cest|ung grand mal que|d'ung re- fuz, _|_ _ _ _ _ _|||et si nest,|
w: Je,|ie|le sçay bien car|quant ie fuz _|_ _ _ _ _ _|||ung iour re-|
 c2 c2 d2 f2 | e2 d3 c c2- | c2 B2 c4 :| z4 z2 c2 | c3 B A2 G2 | A2 A2 F4 | E2 G2 F4 | E8 | %16
w: on ia- mais plaint|da- * * *|* * me,|de|doeul me vint à|l'oeil, la lar-|me, la lar-|me,|
w: fu- sé de ma-|* * * da-|* * me,||||||
 z2 G2 c3 c | B2 B2 c2 c2 | B4 z2 G2 | B2 B2 A4 | AGAB c4- | c4 z2 c2 | c2 B2 c2 c2 | B2 GA Bcde | %24
w: et m'en vis|tout tri- st'et con-|fuz, cest|_ ung grand|mal _ _ _ _|_ cest|ung grand mal que|d'ung re- * * * * *|
w: ||||||||
 f3 e dc c2- | c2 B2 c4 | z2 G2 B2 B2 | A4 AGAB | c8 | z2 c2 c2 B2 | c2 c2 B2 GA | Bcde f3 e | %32
w: |* * fuz,|cest _ ung|grand mal _ _ _|_|cest ung grand|mal que d'ung re- *||
w: ||||||||
 dc c4 B2 | c8 :| %34
w: |fuz.|
w: ||
V:2
 D4 E2 E2 | DCDE F2 F2 | E2 E2 D4 | z2 C2 E2 F2 | G2 D2 F4 | E2 C2 D2 C2 | E4 F4 | E2 E2 D2 D2 | %8
w: Cest ung grand|mal _ _ _ _ que|d'ung re- fuz,|cest ung grand|mal que d'ung|re- * * *||fuz, et si nest,|
w: Je le sçay|bien _ _ _ _ car|quant ie fuz,|ie le sçay|bien car quant|ie _ _ _|_ _|fuz ung iour re-|
 C2 G2 G2 A2 | G2 B2 A2 G2 | G4 E4 :| z2 G2 G2 G2 | F2 G2 E2 E2 | C4 C2 C2 | C4 C4 | z2 C2 G3 G | %16
w: on ia- mais plaint|da- * * *|* me,|de doeul me|vint à l'oeil, la|lar- me, la|lar- me,|et m'en vis|
w: fu- sé de ma|da- * * *|* me,||||||
 D2 D2 F2 F2 | G2 G2 G4 | G4 z2 D2 | G4 F4- | F4 G2 G2 | G2 G2 E2 DC | D2 D2 C2 C2 | G4 G4 | %24
w: tout tri- st'et con-|fuz, et con-|fuz, cest|ung grand|_ mal, cest|ung grand mal _ _|_ que d'ung re-|fuz, que|
w: ||||||||
 A6 F2 | G4 E4 | z2 D2 G4 | F8 | G2 G2 G2 G2 | E2 DC D2 D2 | C2 C2 G4 | G4 A4- | A2 F2 G4 | E8 :| %34
w: d'ung _|re- fuz|cest und|grand|mal, cest ung grand|mal _ _ _ que|d'ung re- fuz,|que d'ung|_ _ re-|fuz.|
w: ||||||||||
V:3
 G4 c2 c2 | B4 z4 | g4 g2 g2 | e2 e2 c2 c2 | d3 c A2 c2- | cB G2 A4 | G2 c2 B2 A2 | c2 c2 d2 f2 | %8
w: Cest ung grand|mal,|cest ung grand|mal que d'ung re-|fuz _ _ _|_ _ _ _|* et si nest,|on ia- mais plaint|
w: Je le sçay|bien,|ie le sçay|bien, car quant je|fuz _ _ _|_ _ _ _|* ung iour re-|fu- sé de ma|
 e4 d2 cd | ef g2 f2 e2 | d4 c4 :| z2 e2 e2 e2 | c2 e2 c2 c2 | A4 A2 A2 | G4 A4 | z2 G2 c3 c | %16
w: da- * * *||* me,|de doeul me|vint à l'oeil, la|lar- me, la|lar- me,|et m'en vis|
w: da- * * *||* me,||||||
 B2 B2 c2 c2 | d2 d2 e4 | d4 z2 B2 | d4 d4 | cBcd e4- | e4 z2 g2 | g2 g2 e2 dc | d2 d2 GABc | %24
w: tout tri- st'et con-|fuz, et con-|fuz, cest|ung grand|mal _ _ _ _|_ cest|ung grand mal _ _|_ que d'ung _ _ _|
w: ||||||||
 de f3 edc | d4 c4 | z2 B2 d4 | d4 cBcd | e8 | z2 g2 g2 g2 | e2 dc d2 d2 | GABc de f2- | fedc d4 | %33
w: _ _ _ _ _ _|re- fuz,|cest ung|grand mal _ _ _|_|cest ung grand|mal _ _ _ que|d'ung _ _ _ _ _ _|_ _ _ _ re-|
w: |||||||||
 c8 :| %34
w: fuz.|
w: |
V:4
 z4 C,4 | G,2 G,2 F,2 E,D, | C,D,E,F, G,2 G,2 | C2 C2 A,2 A,2 | G,2 G,2 F,3 E, | C,2 E,2 D,2 F,2 | %6
w: Cest|ung grand mal, _ _|_ _ _ _ _ cest|ung grand mal que|d'ung re- fuz _|_ _ _ _|
w: Je|le sçay bien, _ _|_ _ _ _ _ ie|le sçay bien, car|quant ie fuz _|_ _ _ _|
 E,2 C,2 D,4 | C,4 z4 | z2 C2 B,2 A,2 | C2 G,2 A,2 C2 | G,4 C,4 :| z2 C2 C3 B, | A,2 G,2 A,2 E,2 | %13
w: ||et si nest,|on ia- mais plaint|da- me,|de doeul me|vint à l'oeil, la|
w: ||ung iour re-|fu- sé de ma|da- me,|||
 F,8 | C,2 E,2 F,4 | C,4 z2 C,2 | G,3 G, F,2 A,2 | G,2 G,2 C,D,E,F, | G,4 z2 G,2 | %19
w: lar-|me, la lar-|me, et|m'en vis tout tri-|st'et con- fuz, _ _ _|_ cest|
w: ||||||
 G,2 G,2 D,2 F,2- | F,2 E,D, C,4 | z2 C2 C2 C2 | G,2 G,2 A,2 A,2 | G,6 F,E, | D,3 E, F,G, A,2 | %25
w: ung grand mal, _|_ _ _ _|cest ung grand|mal que d'ung re-|fuz, _ _|_ _ _ _ _|
w: ||||||
 G,4 C,4 | z2 G,2 G,2 G,2 | D,2 F,4 E,D, | C,4 z2 C2 | C2 C2 G,2 G,2 | A,2 A,2 G,4- | %31
w: |cest ung grand|mal, _ _ _|_ cest|ung grand mal que|d'ung re- *|
w: ||||||
 G,2 F,E, D,3 E, | F,G, A,2 G,4 | C,8 :| %34
w: ||fuz.|
w: |||

